!!!COM: Leoš [Leo Eugen] Janáček
!!!OTL: [T145_Jan-w49p20h4m2-10]
**kern	**dynam	**kern	**dynam	**kern	**dynam	**kern	**dynam	**kern	**dynam
*grp:A	*grp:A	*grp:B	*grp:B	*grp:B	*grp:B	*grp:B	*grp:B	*grp:B	*grp:B
*part5	*part5	*part4	*part4	*part3	*part3	*part2	*part2	*part1	*part1
*staff5	*	*staff4	*	*staff3	*	*staff2	*	*staff1	*
*I"Violoncello	*	*I"Viola	*	*I"Violin II	*	*I"Violin I	*	*I"Clarinet in Bb	*
*I'Vc.	*	*I'Vla.	*	*I'Vln. II	*	*I'Vln. I	*	*I'Cl.	*
!!pagebreak:original
*clefF4	*	*clefC3	*	*clefG2	*	*clefG2	*	*clefG2	*
*	*	*	*	*	*	*	*	*ITrd1c2	*
*k[]	*	*k[]	*	*k[]	*	*k[]	*	*k[b-e-]	*
*M2/4	*	*M2/4	*	*M2/4	*	*M2/4	*	*M2/4	*
*>A	*	*	*	*	*	*	*	*	*
!!LO:REH:t=4
=1|:	=1|:	=1|:	=1|:	=1|:	=1|:	=1|:	=1|:	=1|:	=1|:
*>A2	*	*	*	*	*	*	*	*	*
!	!	!	!LO:DY:ed=brack	!	!LO:DY:ed=brack	!	!LO:DY:ed=brack	!	!
16ryy	4ryy	4.D-X 4.A-X	pp	4.f-X	pp	4.a-X	pp	8f-XL 8a-X	mf
16ryy	.	.	.	.	.	.	.	.	.
8ryy	.	.	.	.	.	.	.	8f-J 8a-	.
8ryy	.	.	.	.	.	.	.	8f-L 8a-	.
16ryy	.	8r	.	8r	.	8r	.	[8f-J [8a-	.
16ryy	.	.	.	.	.	.	.	.	.
=2	=2	=2	=2	=2	=2	=2	=2	=2	=2
16ryy	.	2r	.	8r	.	8r	.	2f-_ 2a-_	.
16ryy	.	.	.	.	.	.	.	.	.
8ryy	.	.	.	(4.e-X	f	(4.ee-X	f	.	.
8ryy	.	.	.	.	.	.	.	.	.
16ryy	.	.	.	.	.	.	.	.	.
16ryy	.	.	.	.	.	.	.	.	.
=3	=3	=3	=3	=3	=3	=3	=3	=3	=3
!	!	!	!	!LO:TX:b:i:t=espress.	!	!LO:TX:b:i:t=espress.	!	!	!
16ryy	.	2r	.	4.a-X	.	4.aa-X	.	2f-_ 2a-_	.
16ryy	.	.	.	.	.	.	.	.	.
8ryy	.	.	.	.	.	.	.	.	.
8ryy	.	.	.	.	.	.	.	.	.
16ryy	.	.	.	[8b-X	<	[8bb-X	<	.	.
16ryy	.	.	.	.	.	.	.	.	.
=4	=4	=4	=4	=4	=4	=4	=4	=4	=4
16ryy	.	2r	.	4b-]	.	4bb-]	.	2f-_ 2a-_	.
16ryy	.	.	.	.	.	.	.	.	.
8ryy	.	.	.	.	.	.	.	.	.
8ryy	.	.	.	[4dd-X	[	[4ddd-X	[	.	.
16ryy	.	.	.	.	.	.	.	.	.
16ryy	.	.	.	.	.	.	.	.	.
=5	=5	=5	=5	=5	=5	=5	=5	=5	=5
16ryy	.	2r	.	8dd-]	.	8ddd-]	.	2f-] 2a-]	.
16ryy	.	.	.	.	.	.	.	.	.
8ryy	.	.	.	4.ee-X)	.	4.eee-X)	.	.	.
8ryy	.	.	.	.	.	.	.	.	.
16ryy	.	.	.	.	.	.	.	.	.
16ryy	.	.	.	.	.	.	.	.	.
!!linebreak:original
=6:|!	=6:|!	=6:|!	=6:|!	=6:|!	=6:|!	=6:|!	=6:|!	=6:|!	=6:|!
*>	*	*	*	*	*	*	*	*	*
16ryy	4ryy	8f-X'L 8a-X	mf	8r	.	8r	.	8f-XL 8a-X	.
16ryy	.	.	.	.	.	.	.	.	.
8ryy	.	8f-'J 8a-	.	(4.e-X	.	(4.ee-X	.	8f-J 8a-	.
8ryy	.	8f-'L 8a-	.	.	.	.	.	8f-L 8a-	.
16ryy	.	8f-'J 8a-	.	.	.	.	.	[8f-J [8a-	.
16ryy	.	.	.	.	.	.	.	.	.
=7	=7	=7	=7	=7	=7	=7	=7	=7	=7
*	*	*tremolo	*	*	*	*	*	*	*
16ryy	.	(64f-XLLLL	.	4.a-X	.	4.aa-X	.	2f-_ 2a-_	.
.	.	64a-X	.	.	.	.	.	.	.
.	.	64f-X	.	.	.	.	.	.	.
.	.	64a-X	.	.	.	.	.	.	.
16ryy	.	64f-X	.	.	.	.	.	.	.
.	.	64a-X	.	.	.	.	.	.	.
.	.	64f-X	.	.	.	.	.	.	.
.	.	64a-X	.	.	.	.	.	.	.
8ryy	.	64f-X	.	.	.	.	.	.	.
.	.	64a-X	.	.	.	.	.	.	.
.	.	64f-X	.	.	.	.	.	.	.
.	.	64a-X	.	.	.	.	.	.	.
.	.	64f-X	.	.	.	.	.	.	.
.	.	64a-X	.	.	.	.	.	.	.
.	.	64f-X	.	.	.	.	.	.	.
.	.	64a-X	.	.	.	.	.	.	.
8ryy	.	64f-X	.	.	.	.	.	.	.
.	.	64a-X	.	.	.	.	.	.	.
.	.	64f-X	.	.	.	.	.	.	.
.	.	64a-X	.	.	.	.	.	.	.
.	.	64f-X	.	.	.	.	.	.	.
.	.	64a-X	.	.	.	.	.	.	.
.	.	64f-X	.	.	.	.	.	.	.
.	.	64a-X	.	.	.	.	.	.	.
16ryy	.	64f-X	.	[8b-X	<	[8bb-X	<	.	.
.	.	64a-X	.	.	.	.	.	.	.
.	.	64f-X	.	.	.	.	.	.	.
.	.	64a-X	.	.	.	.	.	.	.
16ryy	.	64f-X	.	.	.	.	.	.	.
.	.	64a-X	.	.	.	.	.	.	.
.	.	64f-X	.	.	.	.	.	.	.
.	.	64a-X)JJJJ	.	.	.	.	.	.	.
=8	=8	=8	=8	=8	=8	=8	=8	=8	=8
16ryy	.	(64f-XLLLL	.	4b-]	.	4bb-]	.	2f-_ 2a-_	.
.	.	64a-X	.	.	.	.	.	.	.
.	.	64f-X	.	.	.	.	.	.	.
.	.	64a-X	.	.	.	.	.	.	.
16ryy	.	64f-X	.	.	.	.	.	.	.
.	.	64a-X	.	.	.	.	.	.	.
.	.	64f-X	.	.	.	.	.	.	.
.	.	64a-X	.	.	.	.	.	.	.
8ryy	.	64f-X	.	.	.	.	.	.	.
.	.	64a-X	.	.	.	.	.	.	.
.	.	64f-X	.	.	.	.	.	.	.
.	.	64a-X	.	.	.	.	.	.	.
.	.	64f-X	.	.	.	.	.	.	.
.	.	64a-X	.	.	.	.	.	.	.
.	.	64f-X	.	.	.	.	.	.	.
.	.	64a-X	.	.	.	.	.	.	.
8ryy	.	64f-X	.	[4dd-X	.	[4ddd-X	.	.	.
.	.	64a-X	.	.	.	.	.	.	.
.	.	64f-X	.	.	.	.	.	.	.
.	.	64a-X	.	.	.	.	.	.	.
.	.	64f-X	.	.	.	.	.	.	.
.	.	64a-X	.	.	.	.	.	.	.
.	.	64f-X	.	.	.	.	.	.	.
.	.	64a-X	.	.	.	.	.	.	.
16ryy	.	64f-X	.	.	.	.	.	.	.
.	.	64a-X	.	.	.	.	.	.	.
.	.	64f-X	.	.	.	.	.	.	.
.	.	64a-X	.	.	.	.	.	.	.
16ryy	.	64f-X	.	.	.	.	.	.	.
.	.	64a-X	.	.	.	.	.	.	.
.	.	64f-X	.	.	.	.	.	.	.
.	.	64a-X)JJJJ	.	.	.	.	.	.	.
=9	=9	=9	=9	=9	=9	=9	=9	=9	=9
16ryy	.	(64f-XLLLL	.	8dd-]	.	8ddd-]	.	2f-_ 2a-_	.
.	.	64a-X	.	.	.	.	.	.	.
.	.	64f-X	.	.	.	.	.	.	.
.	.	64a-X	.	.	.	.	.	.	.
16ryy	.	64f-X	.	.	.	.	.	.	.
.	.	64a-X	.	.	.	.	.	.	.
.	.	64f-X	.	.	.	.	.	.	.
.	.	64a-X	.	.	.	.	.	.	.
8ryy	.	64f-X	.	[4.ee-X	[	[4.eee-X	[	.	.
.	.	64a-X	.	.	.	.	.	.	.
.	.	64f-X	.	.	.	.	.	.	.
.	.	64a-X	.	.	.	.	.	.	.
.	.	64f-X	.	.	.	.	.	.	.
.	.	64a-X	.	.	.	.	.	.	.
.	.	64f-X	.	.	.	.	.	.	.
.	.	64a-X	.	.	.	.	.	.	.
8ryy	.	64f-X	.	.	.	.	.	.	.
.	.	64a-X	.	.	.	.	.	.	.
.	.	64f-X	.	.	.	.	.	.	.
.	.	64a-X	.	.	.	.	.	.	.
.	.	64f-X	.	.	.	.	.	.	.
.	.	64a-X	.	.	.	.	.	.	.
.	.	64f-X	.	.	.	.	.	.	.
.	.	64a-X	.	.	.	.	.	.	.
16ryy	.	64f-X	.	.	.	.	.	.	.
.	.	64a-X	.	.	.	.	.	.	.
.	.	64f-X	.	.	.	.	.	.	.
.	.	64a-X	.	.	.	.	.	.	.
16ryy	.	64f-X	.	.	.	.	.	.	.
.	.	64a-X	.	.	.	.	.	.	.
.	.	64f-X	.	.	.	.	.	.	.
.	.	64a-X)JJJJ	.	.	.	.	.	.	.
=10	=10	=10	=10	=10	=10	=10	=10	=10	=10
16ryy	.	(64f-XLLLL	.	8ee-L]	.	8eee-L]	.	2f-] 2a-]	.
.	.	64a-X	.	.	.	.	.	.	.
.	.	64f-X	.	.	.	.	.	.	.
.	.	64a-X	.	.	.	.	.	.	.
16ryy	.	64f-X	.	.	.	.	.	.	.
.	.	64a-X	.	.	.	.	.	.	.
.	.	64f-X	.	.	.	.	.	.	.
.	.	64a-X	.	.	.	.	.	.	.
8ryy	.	64f-X	.	(16ee-XL	.	(16eee-XL	.	.	.
.	.	64a-X	.	.	.	.	.	.	.
.	.	64f-X	.	.	.	.	.	.	.
.	.	64a-X	.	.	.	.	.	.	.
.	.	64f-X	.	16dd-XJJ	.	16ddd-XJJ	.	.	.
.	.	64a-X	.	.	.	.	.	.	.
.	.	64f-X	.	.	.	.	.	.	.
.	.	64a-X	.	.	.	.	.	.	.
8ryy	.	64f-X	.	4f-X))	.	4ff-X))	.	.	.
.	.	64a-X	.	.	.	.	.	.	.
.	.	64f-X	.	.	.	.	.	.	.
.	.	64a-X	.	.	.	.	.	.	.
.	.	64f-X	.	.	.	.	.	.	.
.	.	64a-X	.	.	.	.	.	.	.
.	.	64f-X	.	.	.	.	.	.	.
.	.	64a-X	.	.	.	.	.	.	.
16ryy	.	64f-X	.	.	.	.	.	.	.
.	.	64a-X	.	.	.	.	.	.	.
.	.	64f-X	.	.	.	.	.	.	.
.	.	64a-X	.	.	.	.	.	.	.
16ryy	.	64f-X	.	.	.	.	.	.	.
.	.	64a-X	.	.	.	.	.	.	.
.	.	64f-X	.	.	.	.	.	.	.
.	.	64a-X)JJJJ	.	.	.	.	.	.	.
*	*	*Xtremolo	*	*	*	*	*	*	*
=	=	=	=	=	=	=	=	=	=
*-	*-	*-	*-	*-	*-	*-	*-	*-	*-
!!!system-decoration: [(s1)][([(s2,s3)]s4,s5)]
